X:046 
T:Dolly Varden (polka), The
F:file ID:cre.5/046dolly_v
B:CRE5.087 (as English)
M:2/4
L:1/16
Q:120
R:polka
K:G
EF|GBEB GBEB|G2B2 B2AG|FADA FADA|F2A2 A2EF|
GBEB GBEB|G2B2 B2gf|edcB AGFE|D2G2 G2:|
(3DEF|G2B2 d2AG|F2A2 A2BA|G2B2 d2AG|F2E2E3F|
G2B2 d2AG|F2A2 A2gf| edcB AGFE|D2G2 G2:|

%%%

